X: 1
T: Riding on a Load of Hay
M: 4/4
K: Edor
B,2|"Em" E3FG2A2 | B2e2e2fe |"D" d2B2A2G2 | F2D2D2F2 |
"Em"E3F G2A2 | B2e2 "A7"e2fe | "D"d2B2A2F2 | "Em"E2z2z2 :|
|:f2 | "Em"g2e2 "D"f2d2 |"Em" e2B2 B2Bc |"D" d2B2 A2G2 | F2D2 D2|
|1 ef| "Em"g2e2 "D"f2d2 |"Em" e2B2 B2Bc| "D"d2B2 A2F2 | "Em"E2z2z2 :|
|2F2|"Em"E2G2"D"F2A2|"C"G2B2e3f|"Am"g2e2"B7"a2f2|"Em"e2z2z2|]
